X: 32
T: REELS: Torn Jacket Set
T: Torn Jacket
C: C: Connie O'Connell / Trad.; S: Tommy Guihen; Connie O'Connell / Bothy Band / Shaskeen
C: Set Leaders: Mars, Anton
Z: Anton Zille ed.; Mars / UPipes & harp / DanG at The Session
N: https://thesession.org/members/26966/sets/94278
R: Reel
M: 4/4
L: 1/8
Q: 1/2=100
K: Dmaj
|:~F3A d2 ed|cAAB cd e2|~F3A dfed|cAGE EDDE|
~F3A dfed|cA~A2 B/c/d ec|dcde fded|cAGE ED D2:||
|:FAdf ~a3f|g2 gf gfed|cA~A2 B/c/d ef|gfed cAGE|
FAdf ~a3f|~g3a gfef|g2ba gfed|cAGE ED D2:||
T: Morning Star
K: Gmaj
B2 BA BGEF|G2 Bd efgd|~B3A BGEF|GBAF G3A|
~B3A BGEF|GABd efge|dBAc BGEF|GBAF G3A||
Bdef g2 eg|f2 df eBBA|B/c/d ef g2 eg|fedf e2 ed|
B/c/d ef ~g2 eg|~f2 df eBBA|Bdef g2 bg|faaf gfed||
T: Shaskeen
K: Gmaj
|:DG~G2 ABcA|dfed cAAc|~B3G ~A3F|GBAG FGEF|
DG~G2 ABcA|dfed cAAe|~f3g fdcA|1 AGFA G2 GF:|2 AGFA G2B||
dggf g2 fg|abag fddc|~B3G ~A3F|GBAG FD D2|
dggf g2 fg|abag fdde|fd~d2 edcA|AGFA G3B|
dggf ~g2 fg|~a3g fddc|~B2 GB ~A2 FA|GBAG FD D2|
BG~G2 AF~F2|dB~B2 cA~A2|fd~d2 edcA|AGFA G4||

